X:4540
T:Dull Care (top part). JC.026
M:6/8
L:1/8
Q:180
S:John Clare,Poet,Helpston. (1793-1864)
R:Air
O:England
A:Northamptonshire
N:
Z:P Headford
K:C
G|c3d3|e3z2f|gag (fe)f|e3z2G|c3d3|e2zzff|(ef)e dcd|c3z2:|!
|:(c/d/)|g2gg2e|f2ff2d|e2e (ed)c|{e}d2zzGG|c3d3|e3z2f|(ef)e (dc)d|c3z2:|
